X:1
%%scale0.67
T:Nostalgia
T:(Out of nowhere)
M:4/4
L:1/8
C:Fats Navarro
Q:1/4=150
K:G
%%text (medium)
%%vskip 20
%%text intro
(3DEG || "N.C."B2zd A4- | "Gmaj7"A3B AGDE |"C7(b5)" FEFA F4 | z2 (3_DCB, _B,2z2 |
"F7(b5)"B_EGd B4 | "E7(b5)"z2^c^A FDE^G | "Eb7(b5)"_EG,_D_G E3=B, | "D7(b5)"(3CEG (3B_BA _A4 ||
P:A
"Gmaj7"zB{^c}dB {^c}dd zB | {^c}dz BE- ED E/=F/E/D/ |"Bbm7"=F2 _E/F/E/_B,/ FEz2 | "Eb7"z8 |
"Gmaj7"zB{^c}dB {^c}dd zB | {^c}dz BE- ED E/=F/E/D/ |"Bm7"F2DB, FE3 | "E7"z4 z3E ||
P:B
"Am"=FE^DE {B}cc3 | "E7"(3B/c/BA ^GA ff3 | "Am"(3e/f/ecA2 zG (3A/_B/A/G | "Em7"BGE2 z4|
"Bbm7"x4x4 | "Eb7"x4x4 | "Bm7"x4  "Bb7"x4 | "Ebmaj7"x4 "Ab7"x4 ||
P:A
"Gmaj7"zB{^c}dB {^c}dd zB | {^c}dz BE- ED E/=F/E/D/ |"Bbm7"=F2 _E/F/E/_B,/ FEz2 | "Eb7"z8 |
"Gmaj7"zB{^c}dB {^c}dd zB | {^c}dz BE- ED E/=F/E/D/ |"Bm7"F2DB, FE3 | "E7"z4 z3E ||
P:B
"Am"=FE^DE {B}cc3 | "E7"(3B/c/BA ^GA ff3 | "Am"(3e/f/ecA2 zG (3A/_B/A/G | "Eb7"_BG_E2 z4|
"Gmaj7"dBcd "Bb7"z_Bcd | "Ebmaj7"z_Bcd "D7"=f2_ed- | "Gmaj7"d2zB FGBd | "T.A."[^e^A][f3-B3-][f4B4] |]
